icons/svg/16x16/company/outline.svg

<svg xmlns="http://www.w3.org/2000/svg" width="16" height="16" viewBox="0 0 16 16">
  <path fill-rule="evenodd" d="M10.0352,12.9648 L10.0352,9.9998 L6.0352,9.9998 L6.0352,12.9648 L4.0032,12.9648 L4.0142,8.9998 L12.0142,8.9998 L12.0032,12.9648 L10.0352,12.9648 Z M12.0322,2.9998 L12.0292,3.9998 L4.0292,3.9998 L4.0322,2.9998 L12.0322,2.9998 Z M12.0202,6.9998 L4.0202,6.9998 L4.0232,5.9998 L12.0232,5.9998 L12.0202,6.9998 Z M15.0002,12.9648 L14.0032,12.9648 L14.0352,2.0028 C14.0362,1.7368 13.9312,1.4828 13.7432,1.2938 C13.5562,1.1058 13.3012,0.9998 13.0352,0.9998 L3.0352,0.9998 C2.4842,0.9998 2.0372,1.4458 2.0352,1.9968 L2.0032,12.9648 L1.0002,12.9648 C0.4472,12.9648 0.0002,13.4118 0.0002,13.9648 C0.0002,14.5178 0.4472,14.9648 1.0002,14.9648 L3.0002,14.9648 L13.0002,14.9648 L15.0002,14.9648 C15.5532,14.9648 16.0002,14.5178 16.0002,13.9648 C16.0002,13.4118 15.5532,12.9648 15.0002,12.9648 L15.0002,12.9648 Z"/>
</svg>

<svg width="16" height="16" fill="none" xmlns="http://www.w3.org/2000/svg">
  <path fill-rule="evenodd" clip-rule="evenodd" d="M10.035 12.965V10h-4v2.965H4.003L4.014 9h8l-.01 3.965h-1.969zM12.032 3l-.003 1h-8l.003-1h8zm-.012 4h-8l.003-1h8l-.003 1zM15 12.965h-.997l.032-10.962a.999.999 0 00-1-1.003h-10a1 1 0 00-1 .997l-.032 10.968H1a1 1 0 100 2h14a1 1 0 100-2z" fill="#000"/>
</svg>
